X:42
T:Thady Casey's
T:Star of Kilkenny, The
R:reel
C:Martin Mulhaire?
Z:Julie Ross with help from Norbeck
M:C|
K:Em
~B3A Bded|BdAc BE~E2|BAGA (3Bcd ef|1 gfed Bded:|2 gfed Bdef||
g3e dB~B2|dggd Bdef|gfga b2af|1 gfed Bdef:|2 gfed Bded||
